X: 17
T: Merrily Kiss The Quaker
Z: Sean Perry
S: https://thesession.org/tunes/70#setting50921
R: slide
M: 12/8
L: 1/8
K: Gmaj
M:6/8
D|:GAB D2B|c2A BGE|GAB DEG|A3 AGE|
GAB D2B|c2A BGE|GAB DEF|1G3 G2D:|2G3 G2A||
|:BGG AGG|BGG AGE|GAB DEG|A3 AGA|
BGG AGG|BGG AGE|GAB AGF|1G3 G2A:|2G3 GBd||
|:gfg aga|bge def|gfg gab|a3 agf|
gag fgf|e/f/ge dBA|BAB DEF|1G3 GBd:|2G3 G2D||

